chains/kinto/logo.svg

<svg xmlns="http://www.w3.org/2000/svg" width="400" height="400" style="shape-rendering:geometricPrecision;text-rendering:geometricPrecision;image-rendering:optimizeQuality;fill-rule:evenodd;clip-rule:evenodd"><path fill="#0d0d0d" d="M-.5-.5h400v400H-.5V-.5Z" style="opacity:1"/><path fill="#aeaeae" d="M174.5 327.5c-1.616-1.916-1.282-3.416 1-4.5-3.34.149-5.34-1.351-6-4.5 38.88 13.984 69.714 3.651 92.5-31 14.927-29.593 11.427-56.76-10.5-81.5-1-.667-2-.667-3 0a25.53 25.53 0 0 0-5 6.5c-1.579-2.436-3.912-3.769-7-4a195.208 195.208 0 0 0 24.5-28c18.121-38.248 10.288-70.081-23.5-95.5-28.257-16.554-55.591-15.22-82 4a127.22 127.22 0 0 0-12 11.5c-2.746-2.633-2.079-3.966 2-4-.038-2.681.629-5.181 2-7.5-.336-1.03-1.003-1.53-2-1.5 20.984-18.444 45.318-24.61 73-18.5 29.742 7.576 48.742 26.076 57 55.5 28.535 7.368 46.702 25.368 54.5 54 6.565 32.262-1.935 59.762-25.5 82.5-8.839 6.419-18.506 11.253-29 14.5-10.285 32.324-32.285 50.824-66 55.5a121.19 121.19 0 0 1-22 0c-4.585-.396-8.919-1.562-13-3.5Z" style="opacity:1"/><path fill="#bdbdbd" d="M145.5 87.5c.997-.03 1.664.47 2 1.5-1.371 2.319-2.038 4.819-2 7.5-4.079.034-4.746 1.367-2 4-10.837 15.187-15.837 32.187-15 51 .076 2.423-.924 4.256-3 5.5.025 1.988.025 3.988 0 6-3.827 2.478-3.827 3.978 0 4.5a5.576 5.576 0 0 0-1 3c-16.935 14.715-19.435 31.715-7.5 51a38.47 38.47 0 0 0 5.5 5c1.587 2.119 1.254 3.786-1 5-3.388-1.258-6.221-3.258-8.5-6-.399.228-.565.562-.5 1-4.352-4.026-7.185-9.026-8.5-15-4.934-20.038.899-36.038 17.5-48 1.166-4.027.999-8.027-.5-12-22.912 13.009-32.245 32.676-28 59 2.485 10.639 7.318 19.972 14.5 28-.453.958-1.119 1.792-2 2.5.651 1.308-.015 2.141-2 2.5-10.62-9.57-16.787-21.57-18.5-36-2.443-29.462 9.39-50.795 35.5-64 1.333-3.667 1.333-7.333 0-11a44.684 44.684 0 0 0-7 3c-.39-1.89.61-3.39 3-4.5l-2-1 6-1c-1.236-1.085-2.569-1.918-4-2.5 2.15-1.17 4.484-2.17 7-3 3.799-14.283 11.132-26.283 22-36Z" style="opacity:1"/><path fill="#0f0f0f" d="M216.5 105.5c-21.405-7.7-38.905-2.366-52.5 16-10.988 18.451-9.488 35.784 4.5 52-2 2.667-4.333 5-7 7-14.197-14.79-18.363-32.123-12.5-52 5.491-13.654 14.658-23.988 27.5-31 23.931-10.847 45.098-6.847 63.5 12 13.441 17.414 16.108 36.414 8 57a60.147 60.147 0 0 1-10 15 2633.91 2633.91 0 0 1-61.5 60.5 72.496 72.496 0 0 1-10 5.5l-1-1.5a36.805 36.805 0 0 1 5.5-12.5l62-62c14.337-21.968 12.17-42.134-6.5-60.5a73.609 73.609 0 0 0-10-5.5Z" style="opacity:1"/><path fill="#101010" d="M103.5 243.5c5.105 4.918 10.939 8.918 17.5 12 .498 3.317.665 6.65.5 10a23.954 23.954 0 0 1-9-3c-31.335-17.814-43.502-44.48-36.5-80 5.708-21.195 18.208-36.862 37.5-47a44.684 44.684 0 0 1 7-3c1.333 3.667 1.333 7.333 0 11-26.11 13.205-37.943 34.538-35.5 64 1.713 14.43 7.88 26.43 18.5 36ZM277.5 132.5c34.025 13.367 49.859 38.367 47.5 75-4.638 28.62-20.305 48.287-47 59a72.367 72.367 0 0 1-.5-12c11.614-3.779 20.78-10.779 27.5-21 11.753-21.371 12.419-43.038 2-65-6.499-11.499-15.833-19.832-28-25a33.724 33.724 0 0 1-1.5-11ZM236.5 208.5a3298.804 3298.804 0 0 1-49 47.5 95.241 95.241 0 0 1-20 10.5c-1.668-3.19-2.502-6.523-2.5-10 6.703-2.6 12.87-6.1 18.5-10.5l64.5-64.5c15.014-21.851 16.347-44.518 4-68-19.267-27.527-44.767-35.693-76.5-24.5a311.784 311.784 0 0 0-5 3.5c-25.821 15.605-35.655 38.272-29.5 68 2.865 9.401 7.531 17.735 14 25 .667 1 .667 2 0 3a47.05 47.05 0 0 0-6.5 5c-10.967-11.935-17.634-25.935-20-42-.837-18.813 4.163-35.813 15-51a127.22 127.22 0 0 1 12-11.5c26.409-19.22 53.743-20.554 82-4 33.788 25.419 41.621 57.252 23.5 95.5a195.208 195.208 0 0 1-24.5 28Z" style="opacity:1"/><path fill="#0f0f0f" d="M220.5 115.5a84.01 84.01 0 0 0 7.5 8c.667.667.667 1.333 0 2-7.391 2.274-13.891 5.94-19.5 11a44.91 44.91 0 0 0-9 7c-8.378-8.189-18.044-14.355-29-18.5 9.835-13.17 22.835-17.836 39-14 3.926 1.027 7.593 2.527 11 4.5ZM273.5 170.5c10.442 6.197 15.775 15.53 16 28 .264 12.879-4.903 22.879-15.5 30-4.224-10.868-10.058-20.701-17.5-29.5 7.584-8.331 13.251-17.831 17-28.5ZM124.5 170.5a154.54 154.54 0 0 0 18 28.5 533.605 533.605 0 0 0-12.5 18.5 3266.84 3266.84 0 0 1-5 11c-.708-.881-1.542-1.547-2.5-2a38.47 38.47 0 0 1-5.5-5c-11.935-19.285-9.435-36.285 7.5-51Z" style="opacity:1"/><path fill="#101010" d="M277.5 151.5c25.153 14.252 34.32 35.586 27.5 64-4.589 14.587-13.755 24.92-27.5 31-.793-3.713-.793-7.38 0-11 16.066-11.688 22.233-27.355 18.5-47-3.254-10.516-9.421-18.85-18.5-25-.684-3.946-.684-7.946 0-12Z" style="opacity:1"/><path fill="#c4c4c4" d="M116.5 126.5c1.431.582 2.764 1.415 4 2.5l-6 1 2 1c-2.39 1.11-3.39 2.61-3 4.5-19.292 10.138-31.792 25.805-37.5 47-7.002 35.52 5.165 62.186 36.5 80-1.324 2.576-2.324 4.909-3 7-23.262-11.465-37.096-30.132-41.5-56-4.545-32.053 5.622-58.22 30.5-78.5a74.096 74.096 0 0 1 18-8.5Z" style="opacity:1"/><path fill="#b6b6b6" d="M170.5 92.5c3.183.277 5.183 1.944 6 5-12.842 7.012-22.009 17.346-27.5 31-5.863 19.877-1.697 37.21 12.5 52 2.667-2 5-4.333 7-7-13.988-16.216-15.488-33.549-4.5-52 13.595-18.366 31.095-23.7 52.5-16 .077 1.25.744 2.083 2 2.5l-1 1c2.333 1 4 2.667 5 5-.544.717-1.211 1.217-2 1.5-3.407-1.973-7.074-3.473-11-4.5-16.165-3.836-29.165.83-39 14 10.956 4.145 20.622 10.311 29 18.5a44.91 44.91 0 0 1 9-7c.755 1.966 1.921 2.3 3.5 1 .374.916.874 1.75 1.5 2.5-2.888 1.79-5.888 2.957-9 3.5.184 1.915-.15 3.915-1 6a4867.38 4867.38 0 0 1-58.5 59c-19.666 26.318-21.666 53.984-6 83 7.857 11.695 18.024 20.695 30.5 27 .66 3.149 2.66 4.649 6 4.5-2.282 1.084-2.616 2.584-1 4.5-26.863-8.069-43.53-25.736-50-53-5.415-.694-10.415-2.36-15-5 .676-2.091 1.676-4.424 3-7a23.954 23.954 0 0 0 9 3 50.464 50.464 0 0 0-.5-10c-6.561-3.082-12.395-7.082-17.5-12 1.985-.359 2.651-1.192 2-2.5.881-.708 1.547-1.542 2-2.5a124.785 124.785 0 0 0 13 8c4.017-7.181 2.35-12.347-5-15.5-1.641-1.129-2.641-2.629-3-4.5-.065-.438.101-.772.5-1 2.279 2.742 5.112 4.742 8.5 6 2.254-1.214 2.587-2.881 1-5 .958.453 1.792 1.119 2.5 2a3266.84 3266.84 0 0 0 5-11 533.605 533.605 0 0 1 12.5-18.5 154.54 154.54 0 0 1-18-28.5 5.576 5.576 0 0 1 1-3c-3.827-.522-3.827-2.022 0-4.5.025-2.012.025-4.012 0-6 2.076-1.244 3.076-3.077 3-5.5 2.366 16.065 9.033 30.065 20 42a47.05 47.05 0 0 1 6.5-5c.667-1 .667-2 0-3-6.469-7.265-11.135-15.599-14-25-6.155-29.728 3.679-52.395 29.5-68Z" style="opacity:1"/><path fill="#131313" d="M165.5 151.5c5.805 1.822 10.971 4.822 15.5 9 .667.667.667 1.333 0 2a483.737 483.737 0 0 1-7 6c-4.432-4.863-7.265-10.53-8.5-17Z" style="opacity:1"/><path fill="#111" d="M166.5 132.5c10.245 2.538 19.078 7.538 26.5 15 .667 1 .667 2 0 3l-6 6c-6.091-6.297-13.257-10.964-21.5-14l-1-2 2-8Z" style="opacity:1"/><path fill="#101010" d="M112.5 226.5c.359 1.871 1.359 3.371 3 4.5 7.35 3.153 9.017 8.319 5 15.5a124.785 124.785 0 0 1-13-8c-7.182-8.028-12.015-17.361-14.5-28-4.245-26.324 5.088-45.991 28-59 1.499 3.973 1.666 7.973.5 12-16.601 11.962-22.434 27.962-17.5 48 1.315 5.974 4.148 10.974 8.5 15Z" style="opacity:1"/><path fill="#b3b3b3" d="M236.5 208.5c3.088.231 5.421 1.564 7 4 20.416 24.241 22.249 49.908 5.5 77-22.891 26.977-50.057 32.144-81.5 15.5-26.939-19.154-34.772-44.32-23.5-75.5a129.073 129.073 0 0 1 8-13l64.5-64.5a106.143 106.143 0 0 1 17-9.5c.976-2.997.81-5.997-.5-9a3.943 3.943 0 0 0-2-1c-10.081 4.259-19.247 9.926-27.5 17 .85-2.085 1.184-4.085 1-6 3.112-.543 6.112-1.71 9-3.5a9.454 9.454 0 0 1-1.5-2.5c-1.579 1.3-2.745.966-3.5-1 5.609-5.06 12.109-8.726 19.5-11 .667-.667.667-1.333 0-2a84.01 84.01 0 0 1-7.5-8c.789-.283 1.456-.783 2-1.5-1-2.333-2.667-4-5-5l1-1c-1.256-.417-1.923-1.25-2-2.5a73.609 73.609 0 0 1 10 5.5c18.67 18.366 20.837 38.532 6.5 60.5l-62 62a36.805 36.805 0 0 0-5.5 12.5l1 1.5a72.496 72.496 0 0 0 10-5.5 2633.91 2633.91 0 0 0 61.5-60.5 60.147 60.147 0 0 0 10-15c8.108-20.586 5.441-39.586-8-57-18.402-18.847-39.569-22.847-63.5-12-.817-3.056-2.817-4.723-6-5 1.6-1.144 3.267-2.311 5-3.5 31.733-11.193 57.233-3.027 76.5 24.5 12.347 23.482 11.014 46.149-4 68L183.5 246a72.387 72.387 0 0 1-18.5 10.5c-.002 3.477.832 6.81 2.5 10a95.241 95.241 0 0 0 20-10.5 3298.804 3298.804 0 0 0 49-47.5Z" style="opacity:1"/><path fill="#101010" d="M232.5 150.5c.876-.131 1.543.202 2 1a44.757 44.757 0 0 1-6.5 14 3030.613 3030.613 0 0 0-65 66c-12.143 27.187-5.309 48.02 20.5 62.5 27.854 6.99 47.02-2.843 57.5-29.5 3.69-15.243.19-28.576-10.5-40 2-2.667 4.333-5 7-7 13.693 14.432 18.193 31.432 13.5 51-8.535 22.848-25.035 35.682-49.5 38.5-23.522.318-40.356-10.182-50.5-31.5-7.538-19.631-5.205-37.965 7-55l58.5-58.5a230.945 230.945 0 0 1 16-11.5Z" style="opacity:1"/><path fill="#101010" d="M243.5 212.5a25.53 25.53 0 0 1 5-6.5c1-.667 2-.667 3 0 21.927 24.74 25.427 51.907 10.5 81.5-22.786 34.651-53.62 44.984-92.5 31-12.476-6.305-22.643-15.305-30.5-27-15.666-29.016-13.666-56.682 6-83a4867.38 4867.38 0 0 0 58.5-59c8.253-7.074 17.419-12.741 27.5-17a3.943 3.943 0 0 1 2 1c1.31 3.003 1.476 6.003.5 9a106.143 106.143 0 0 0-17 9.5L152 216.5a129.073 129.073 0 0 0-8 13c-11.272 31.18-3.439 56.346 23.5 75.5 31.443 16.644 58.609 11.477 81.5-15.5 16.749-27.092 14.916-52.759-5.5-77Z" style="opacity:1"/><path fill="#0f0f0f" d="M198.5 255.5a367.345 367.345 0 0 0 18 12.5c3.703 2.354 7.703 3.854 12 4.5-3.284 7.439-8.951 12.272-17 14.5-16.984 4.95-30.65.45-41-13.5 10.715-4.014 20.048-10.014 28-18Z" style="opacity:1"/><path fill="#111" d="M211.5 242.5c6.573 6.057 14.073 10.724 22.5 14 .423 3.642-.411 6.976-2.5 10-9.899-3.195-18.399-8.528-25.5-16-.667-.667-.667-1.333 0-2a46.081 46.081 0 0 0 5.5-6Z" style="opacity:1"/><path fill="#121212" d="M223.5 230.5c5.506 3.289 8.84 8.289 10 15l-1 2a47.268 47.268 0 0 1-15-10.5 28.85 28.85 0 0 0 6-6.5Z" style="opacity:1"/></svg>

<?xml version="1.0" encoding="UTF-8"?>
<!DOCTYPE svg PUBLIC "-//W3C//DTD SVG 1.1//EN" "http://www.w3.org/Graphics/SVG/1.1/DTD/svg11.dtd">
<svg xmlns="http://www.w3.org/2000/svg" version="1.1" width="400px" height="400px" style="shape-rendering:geometricPrecision; text-rendering:geometricPrecision; image-rendering:optimizeQuality; fill-rule:evenodd; clip-rule:evenodd" xmlns:xlink="http://www.w3.org/1999/xlink">
<g><path style="opacity:1" fill="#0d0d0d" d="M -0.5,-0.5 C 132.833,-0.5 266.167,-0.5 399.5,-0.5C 399.5,132.833 399.5,266.167 399.5,399.5C 266.167,399.5 132.833,399.5 -0.5,399.5C -0.5,266.167 -0.5,132.833 -0.5,-0.5 Z"/></g>
<g><path style="opacity:1" fill="#aeaeae" d="M 174.5,327.5 C 172.884,325.584 173.218,324.084 175.5,323C 172.16,323.149 170.16,321.649 169.5,318.5C 208.38,332.484 239.214,322.151 262,287.5C 276.927,257.907 273.427,230.74 251.5,206C 250.5,205.333 249.5,205.333 248.5,206C 246.461,207.926 244.794,210.093 243.5,212.5C 241.921,210.064 239.588,208.731 236.5,208.5C 245.576,199.927 253.742,190.593 261,180.5C 279.121,142.252 271.288,110.419 237.5,85C 209.243,68.4462 181.909,69.7796 155.5,89C 151.191,92.6277 147.191,96.461 143.5,100.5C 140.754,97.8672 141.421,96.5338 145.5,96.5C 145.462,93.8187 146.129,91.3187 147.5,89C 147.164,87.9701 146.497,87.4701 145.5,87.5C 166.484,69.0564 190.818,62.8897 218.5,69C 248.242,76.5762 267.242,95.0762 275.5,124.5C 304.035,131.868 322.202,149.868 330,178.5C 336.565,210.762 328.065,238.262 304.5,261C 295.661,267.419 285.994,272.253 275.5,275.5C 265.215,307.824 243.215,326.324 209.5,331C 202.167,331.667 194.833,331.667 187.5,331C 182.915,330.604 178.581,329.438 174.5,327.5 Z"/></g>
<g><path style="opacity:1" fill="#bdbdbd" d="M 145.5,87.5 C 146.497,87.4701 147.164,87.9701 147.5,89C 146.129,91.3187 145.462,93.8187 145.5,96.5C 141.421,96.5338 140.754,97.8672 143.5,100.5C 132.663,115.687 127.663,132.687 128.5,151.5C 128.576,153.923 127.576,155.756 125.5,157C 125.525,158.988 125.525,160.988 125.5,163C 121.673,165.478 121.673,166.978 125.5,167.5C 124.873,168.417 124.539,169.417 124.5,170.5C 107.565,185.215 105.065,202.215 117,221.5C 118.704,223.373 120.537,225.04 122.5,226.5C 124.087,228.619 123.754,230.286 121.5,231.5C 118.112,230.242 115.279,228.242 113,225.5C 112.601,225.728 112.435,226.062 112.5,226.5C 108.148,222.474 105.315,217.474 104,211.5C 99.0657,191.462 104.899,175.462 121.5,163.5C 122.666,159.473 122.499,155.473 121,151.5C 98.0881,164.509 88.7547,184.176 93,210.5C 95.4847,221.139 100.318,230.472 107.5,238.5C 107.047,239.458 106.381,240.292 105.5,241C 106.151,242.308 105.485,243.141 103.5,243.5C 92.8801,233.93 86.7134,221.93 85,207.5C 82.5571,178.038 94.3904,156.705 120.5,143.5C 121.833,139.833 121.833,136.167 120.5,132.5C 118.055,133.312 115.722,134.312 113.5,135.5C 113.11,133.61 114.11,132.11 116.5,131C 115.833,130.667 115.167,130.333 114.5,130C 116.5,129.667 118.5,129.333 120.5,129C 119.264,127.915 117.931,127.082 116.5,126.5C 118.65,125.33 120.984,124.33 123.5,123.5C 127.299,109.217 134.632,97.2168 145.5,87.5 Z"/></g>
<g><path style="opacity:1" fill="#0f0f0f" d="M 216.5,105.5 C 195.095,97.8002 177.595,103.134 164,121.5C 153.012,139.951 154.512,157.284 168.5,173.5C 166.5,176.167 164.167,178.5 161.5,180.5C 147.303,165.71 143.137,148.377 149,128.5C 154.491,114.846 163.658,104.512 176.5,97.5C 200.431,86.6525 221.598,90.6525 240,109.5C 253.441,126.914 256.108,145.914 248,166.5C 245.411,172.016 242.078,177.016 238,181.5C 217.859,201.974 197.359,222.141 176.5,242C 173.327,244.087 169.994,245.921 166.5,247.5C 166.167,247 165.833,246.5 165.5,246C 166.564,241.467 168.397,237.3 171,233.5C 191.667,212.833 212.333,192.167 233,171.5C 247.337,149.532 245.17,129.366 226.5,111C 223.273,108.888 219.94,107.055 216.5,105.5 Z"/></g>
<g><path style="opacity:1" fill="#101010" d="M 103.5,243.5 C 108.605,248.418 114.439,252.418 121,255.5C 121.498,258.817 121.665,262.15 121.5,265.5C 118.285,265.095 115.285,264.095 112.5,262.5C 81.1645,244.686 68.9978,218.02 76,182.5C 81.7078,161.305 94.2078,145.638 113.5,135.5C 115.722,134.312 118.055,133.312 120.5,132.5C 121.833,136.167 121.833,139.833 120.5,143.5C 94.3904,156.705 82.5571,178.038 85,207.5C 86.7134,221.93 92.8801,233.93 103.5,243.5 Z"/></g>
<g><path style="opacity:1" fill="#101010" d="M 277.5,132.5 C 311.525,145.867 327.359,170.867 325,207.5C 320.362,236.12 304.695,255.787 278,266.5C 277.501,262.514 277.334,258.514 277.5,254.5C 289.114,250.721 298.28,243.721 305,233.5C 316.753,212.129 317.419,190.462 307,168.5C 300.501,157.001 291.167,148.668 279,143.5C 277.892,139.914 277.392,136.247 277.5,132.5 Z"/></g>
<g><path style="opacity:1" fill="#101010" d="M 236.5,208.5 C 220.339,224.494 204.006,240.327 187.5,256C 181.275,260.28 174.609,263.78 167.5,266.5C 165.832,263.31 164.998,259.977 165,256.5C 171.703,253.9 177.87,250.4 183.5,246C 205,224.5 226.5,203 248,181.5C 263.014,159.649 264.347,136.982 252,113.5C 232.733,85.9733 207.233,77.8066 175.5,89C 173.767,90.1889 172.1,91.3556 170.5,92.5C 144.679,108.105 134.845,130.772 141,160.5C 143.865,169.901 148.531,178.235 155,185.5C 155.667,186.5 155.667,187.5 155,188.5C 152.691,189.975 150.524,191.642 148.5,193.5C 137.533,181.565 130.866,167.565 128.5,151.5C 127.663,132.687 132.663,115.687 143.5,100.5C 147.191,96.461 151.191,92.6277 155.5,89C 181.909,69.7796 209.243,68.4462 237.5,85C 271.288,110.419 279.121,142.252 261,180.5C 253.742,190.593 245.576,199.927 236.5,208.5 Z"/></g>
<g><path style="opacity:1" fill="#0f0f0f" d="M 220.5,115.5 C 222.795,118.297 225.295,120.964 228,123.5C 228.667,124.167 228.667,124.833 228,125.5C 220.609,127.774 214.109,131.44 208.5,136.5C 205.233,138.427 202.233,140.761 199.5,143.5C 191.122,135.311 181.456,129.145 170.5,125C 180.335,111.83 193.335,107.164 209.5,111C 213.426,112.027 217.093,113.527 220.5,115.5 Z"/></g>
<g><path style="opacity:1" fill="#0f0f0f" d="M 273.5,170.5 C 283.942,176.697 289.275,186.03 289.5,198.5C 289.764,211.379 284.597,221.379 274,228.5C 269.776,217.632 263.942,207.799 256.5,199C 264.084,190.669 269.751,181.169 273.5,170.5 Z"/></g>
<g><path style="opacity:1" fill="#0f0f0f" d="M 124.5,170.5 C 129.436,180.617 135.436,190.117 142.5,199C 138.215,205.063 134.049,211.23 130,217.5C 128.326,221.201 126.659,224.868 125,228.5C 124.292,227.619 123.458,226.953 122.5,226.5C 120.537,225.04 118.704,223.373 117,221.5C 105.065,202.215 107.565,185.215 124.5,170.5 Z"/></g>
<g><path style="opacity:1" fill="#101010" d="M 277.5,151.5 C 302.653,165.752 311.82,187.086 305,215.5C 300.411,230.087 291.245,240.42 277.5,246.5C 276.707,242.787 276.707,239.12 277.5,235.5C 293.566,223.812 299.733,208.145 296,188.5C 292.746,177.984 286.579,169.65 277.5,163.5C 276.816,159.554 276.816,155.554 277.5,151.5 Z"/></g>
<g><path style="opacity:1" fill="#c4c4c4" d="M 116.5,126.5 C 117.931,127.082 119.264,127.915 120.5,129C 118.5,129.333 116.5,129.667 114.5,130C 115.167,130.333 115.833,130.667 116.5,131C 114.11,132.11 113.11,133.61 113.5,135.5C 94.2078,145.638 81.7078,161.305 76,182.5C 68.9978,218.02 81.1645,244.686 112.5,262.5C 111.176,265.076 110.176,267.409 109.5,269.5C 86.2378,258.035 72.4045,239.368 68,213.5C 63.4551,181.447 73.6217,155.28 98.5,135C 104.128,131.352 110.128,128.519 116.5,126.5 Z"/></g>
<g><path style="opacity:1" fill="#b6b6b6" d="M 170.5,92.5 C 173.683,92.7772 175.683,94.4439 176.5,97.5C 163.658,104.512 154.491,114.846 149,128.5C 143.137,148.377 147.303,165.71 161.5,180.5C 164.167,178.5 166.5,176.167 168.5,173.5C 154.512,157.284 153.012,139.951 164,121.5C 177.595,103.134 195.095,97.8002 216.5,105.5C 216.577,106.75 217.244,107.583 218.5,108C 218.167,108.333 217.833,108.667 217.5,109C 219.833,110 221.5,111.667 222.5,114C 221.956,114.717 221.289,115.217 220.5,115.5C 217.093,113.527 213.426,112.027 209.5,111C 193.335,107.164 180.335,111.83 170.5,125C 181.456,129.145 191.122,135.311 199.5,143.5C 202.233,140.761 205.233,138.427 208.5,136.5C 209.255,138.466 210.421,138.8 212,137.5C 212.374,138.416 212.874,139.25 213.5,140C 210.612,141.79 207.612,142.957 204.5,143.5C 204.684,145.415 204.35,147.415 203.5,149.5C 184.202,169.299 164.702,188.965 145,208.5C 125.334,234.818 123.334,262.484 139,291.5C 146.857,303.195 157.024,312.195 169.5,318.5C 170.16,321.649 172.16,323.149 175.5,323C 173.218,324.084 172.884,325.584 174.5,327.5C 147.637,319.431 130.97,301.764 124.5,274.5C 119.085,273.806 114.085,272.14 109.5,269.5C 110.176,267.409 111.176,265.076 112.5,262.5C 115.285,264.095 118.285,265.095 121.5,265.5C 121.665,262.15 121.498,258.817 121,255.5C 114.439,252.418 108.605,248.418 103.5,243.5C 105.485,243.141 106.151,242.308 105.5,241C 106.381,240.292 107.047,239.458 107.5,238.5C 111.61,241.395 115.944,244.062 120.5,246.5C 124.517,239.319 122.85,234.153 115.5,231C 113.859,229.871 112.859,228.371 112.5,226.5C 112.435,226.062 112.601,225.728 113,225.5C 115.279,228.242 118.112,230.242 121.5,231.5C 123.754,230.286 124.087,228.619 122.5,226.5C 123.458,226.953 124.292,227.619 125,228.5C 126.659,224.868 128.326,221.201 130,217.5C 134.049,211.23 138.215,205.063 142.5,199C 135.436,190.117 129.436,180.617 124.5,170.5C 124.539,169.417 124.873,168.417 125.5,167.5C 121.673,166.978 121.673,165.478 125.5,163C 125.525,160.988 125.525,158.988 125.5,157C 127.576,155.756 128.576,153.923 128.5,151.5C 130.866,167.565 137.533,181.565 148.5,193.5C 150.524,191.642 152.691,189.975 155,188.5C 155.667,187.5 155.667,186.5 155,185.5C 148.531,178.235 143.865,169.901 141,160.5C 134.845,130.772 144.679,108.105 170.5,92.5 Z"/></g>
<g><path style="opacity:1" fill="#131313" d="M 165.5,151.5 C 171.305,153.322 176.471,156.322 181,160.5C 181.667,161.167 181.667,161.833 181,162.5C 178.659,164.545 176.326,166.545 174,168.5C 169.568,163.637 166.735,157.97 165.5,151.5 Z"/></g>
<g><path style="opacity:1" fill="#111111" d="M 166.5,132.5 C 176.745,135.038 185.578,140.038 193,147.5C 193.667,148.5 193.667,149.5 193,150.5C 191,152.5 189,154.5 187,156.5C 180.909,150.203 173.743,145.536 165.5,142.5C 165.167,141.833 164.833,141.167 164.5,140.5C 165.171,137.815 165.838,135.148 166.5,132.5 Z"/></g>
<g><path style="opacity:1" fill="#101010" d="M 112.5,226.5 C 112.859,228.371 113.859,229.871 115.5,231C 122.85,234.153 124.517,239.319 120.5,246.5C 115.944,244.062 111.61,241.395 107.5,238.5C 100.318,230.472 95.4847,221.139 93,210.5C 88.7547,184.176 98.0881,164.509 121,151.5C 122.499,155.473 122.666,159.473 121.5,163.5C 104.899,175.462 99.0657,191.462 104,211.5C 105.315,217.474 108.148,222.474 112.5,226.5 Z"/></g>
<g><path style="opacity:1" fill="#b3b3b3" d="M 236.5,208.5 C 239.588,208.731 241.921,210.064 243.5,212.5C 263.916,236.741 265.749,262.408 249,289.5C 226.109,316.477 198.943,321.644 167.5,305C 140.561,285.846 132.728,260.68 144,229.5C 146.416,224.999 149.083,220.666 152,216.5C 173.5,195 195,173.5 216.5,152C 221.876,148.312 227.542,145.146 233.5,142.5C 234.476,139.503 234.31,136.503 233,133.5C 232.439,132.978 231.772,132.645 231,132.5C 220.919,136.759 211.753,142.426 203.5,149.5C 204.35,147.415 204.684,145.415 204.5,143.5C 207.612,142.957 210.612,141.79 213.5,140C 212.874,139.25 212.374,138.416 212,137.5C 210.421,138.8 209.255,138.466 208.5,136.5C 214.109,131.44 220.609,127.774 228,125.5C 228.667,124.833 228.667,124.167 228,123.5C 225.295,120.964 222.795,118.297 220.5,115.5C 221.289,115.217 221.956,114.717 222.5,114C 221.5,111.667 219.833,110 217.5,109C 217.833,108.667 218.167,108.333 218.5,108C 217.244,107.583 216.577,106.75 216.5,105.5C 219.94,107.055 223.273,108.888 226.5,111C 245.17,129.366 247.337,149.532 233,171.5C 212.333,192.167 191.667,212.833 171,233.5C 168.397,237.3 166.564,241.467 165.5,246C 165.833,246.5 166.167,247 166.5,247.5C 169.994,245.921 173.327,244.087 176.5,242C 197.359,222.141 217.859,201.974 238,181.5C 242.078,177.016 245.411,172.016 248,166.5C 256.108,145.914 253.441,126.914 240,109.5C 221.598,90.6525 200.431,86.6525 176.5,97.5C 175.683,94.4439 173.683,92.7772 170.5,92.5C 172.1,91.3556 173.767,90.1889 175.5,89C 207.233,77.8066 232.733,85.9733 252,113.5C 264.347,136.982 263.014,159.649 248,181.5C 226.5,203 205,224.5 183.5,246C 177.87,250.4 171.703,253.9 165,256.5C 164.998,259.977 165.832,263.31 167.5,266.5C 174.609,263.78 181.275,260.28 187.5,256C 204.006,240.327 220.339,224.494 236.5,208.5 Z"/></g>
<g><path style="opacity:1" fill="#101010" d="M 232.5,150.5 C 233.376,150.369 234.043,150.702 234.5,151.5C 233.137,156.558 230.971,161.224 228,165.5C 205.971,187.195 184.305,209.195 163,231.5C 150.857,258.687 157.691,279.52 183.5,294C 211.354,300.99 230.52,291.157 241,264.5C 244.69,249.257 241.19,235.924 230.5,224.5C 232.5,221.833 234.833,219.5 237.5,217.5C 251.193,231.932 255.693,248.932 251,268.5C 242.465,291.348 225.965,304.182 201.5,307C 177.978,307.318 161.144,296.818 151,275.5C 143.462,255.869 145.795,237.535 158,220.5C 177.554,200.946 197.054,181.446 216.5,162C 221.724,157.9 227.057,154.067 232.5,150.5 Z"/></g>
<g><path style="opacity:1" fill="#101010" d="M 243.5,212.5 C 244.794,210.093 246.461,207.926 248.5,206C 249.5,205.333 250.5,205.333 251.5,206C 273.427,230.74 276.927,257.907 262,287.5C 239.214,322.151 208.38,332.484 169.5,318.5C 157.024,312.195 146.857,303.195 139,291.5C 123.334,262.484 125.334,234.818 145,208.5C 164.702,188.965 184.202,169.299 203.5,149.5C 211.753,142.426 220.919,136.759 231,132.5C 231.772,132.645 232.439,132.978 233,133.5C 234.31,136.503 234.476,139.503 233.5,142.5C 227.542,145.146 221.876,148.312 216.5,152C 195,173.5 173.5,195 152,216.5C 149.083,220.666 146.416,224.999 144,229.5C 132.728,260.68 140.561,285.846 167.5,305C 198.943,321.644 226.109,316.477 249,289.5C 265.749,262.408 263.916,236.741 243.5,212.5 Z"/></g>
<g><path style="opacity:1" fill="#0f0f0f" d="M 198.5,255.5 C 204.326,259.811 210.326,263.978 216.5,268C 220.203,270.354 224.203,271.854 228.5,272.5C 225.216,279.939 219.549,284.772 211.5,287C 194.516,291.95 180.85,287.45 170.5,273.5C 181.215,269.486 190.548,263.486 198.5,255.5 Z"/></g>
<g><path style="opacity:1" fill="#111111" d="M 211.5,242.5 C 218.073,248.557 225.573,253.224 234,256.5C 234.423,260.142 233.589,263.476 231.5,266.5C 221.601,263.305 213.101,257.972 206,250.5C 205.333,249.833 205.333,249.167 206,248.5C 208.04,246.63 209.873,244.63 211.5,242.5 Z"/></g>
<g><path style="opacity:1" fill="#121212" d="M 223.5,230.5 C 229.006,233.789 232.34,238.789 233.5,245.5C 233.167,246.167 232.833,246.833 232.5,247.5C 226.809,244.973 221.809,241.473 217.5,237C 219.847,235.128 221.847,232.961 223.5,230.5 Z"/></g>
</svg>
